storage/app/icons/phosphoricons/thin/shopping-cart-thin.svg

<svg xmlns="http://www.w3.org/2000/svg" fill="currentColor" viewBox="0 0 256 256"><path d="M227.07 61.44A4 4 0 0 0 224 60H59.34l-6.68-36.72A4 4 0 0 0 48.73 20H24a4 4 0 0 0 0 8h21.39l6.69 36.8 19.41 106.78A20 20 0 0 0 79 183.85a24 24 0 1 0 30.87 4.15h60.26a24 24 0 1 0 17.87-8H91.17a12 12 0 0 1-11.8-9.85l-4-22.15H196.1a20 20 0 0 0 19.68-16.42l12.16-66.86a4 4 0 0 0-.87-3.28M108 204a16 16 0 1 1-16-16 16 16 0 0 1 16 16m96 0a16 16 0 1 1-16-16 16 16 0 0 1 16 16m3.91-73.85A12 12 0 0 1 196.1 140H73.88L60.79 68h158.42Z"/></svg>

<svg xmlns="http://www.w3.org/2000/svg" viewBox="0 0 256 256" fill="currentColor"><path d="M227.07,61.44A4,4,0,0,0,224,60H59.34L52.66,23.28A4,4,0,0,0,48.73,20H24a4,4,0,0,0,0,8H45.39l6.69,36.8h0L71.49,171.58A20,20,0,0,0,79,183.85,24,24,0,1,0,109.87,188h60.26A24,24,0,1,0,188,180H91.17a12,12,0,0,1-11.8-9.85l-4-22.15H196.1a20,20,0,0,0,19.68-16.42l12.16-66.86A4,4,0,0,0,227.07,61.44ZM108,204a16,16,0,1,1-16-16A16,16,0,0,1,108,204Zm96,0a16,16,0,1,1-16-16A16,16,0,0,1,204,204Zm3.91-73.85A12,12,0,0,1,196.1,140H73.88L60.79,68H219.21Z"/></svg>
